X:21136 
T:MISS GRANT'S JIG 
B:DMI.0349
Z:Nordberg/Black
R:jig
%Q:1/4=160
M:6/8
L:1/8
K:Am
G|EAB AEA|AcA BGE|DGG G2A|GBG AGE|
EAB AGA|BAG Bcd|ege dcB|cAA A2:|
d|ecA A2B|c2d edc|BdB G2B|GAG Bcd|
cec A2B|cBA a2g|ece dcB|cAA A2:|

%%%

